svg/u1f9a4.svg

<svg viewBox="0 0 128 128" xmlns="http://www.w3.org/2000/svg">
  <g>
    <g>
      <path d="M63.01,99.87c0,0-3.81,9.69-5.89,13.34c-1.64,2.88-8.27,3.66-12.32,4.7 c-3.52,0.9-8.08,0.88-8.52,2.86c-0.44,1.99,1.06,3.04,4.62,3.17c3.57,0.13,29.37,0,31.18,0c1.81,0,3.12-2.31-0.6-4.86 c-3.27-2.24-4.53-2.43-3.21-5.33c1.32-2.91,7.45-12.4,7.45-12.4L63.01,99.87z" fill="#E8A631"/>
      <path d="M32.6,20.99c0,0,2.14,2.89,1.94,5.53c-0.13,1.7,0,4.31-8.22,7.7c-9.96,4.11-14.95,8.54-14.88,16.34 c0.1,10.95,6.68,16.59,9.6,18.77s1.45,8.31,8.92,15.56c10.7,10.39,16.65,9.05,22.19,11.52c2.09,0.93,2.36,0.98,4.89,4.52 c1.95,2.73,6.24,7.08,12.11,7.08c7.55,0,8.7-6.36,11.65-7.74s24.08-3.17,26.48-20.66c1.88-13.7-13.48-35.13-38.45-40.65 c-11.21-2.48-18.35,0.69-22.16,1.64c-0.92,0.23-3.19,1.16-3.19,1.16c-0.71-1.85,2.54-3.61,4.87-5.73 c2.68-2.44,5.72-5.08,7.19-7.69C62.97,15.07,51.94,0.93,38.7,4.59C33.98,5.89,32.6,20.99,32.6,20.99z" fill="#78A3AD"/>
      <path d="M91.63,50.13c0,0-1.61-6.25,3.05-9.16c3.37-2.12,7.08-1.82,9.48,0.63 c1.27-1.09,2.63-2.18,4.25-2.59c4.57-1.18,9.42,0,11.71,4.32c3.11,5.86,0.39,8.93-3.35,12.49c0,0,4.51,2.03,4.68,9.28 c0.15,6.42-2.22,13.06-11.37,15.65c-3.56,1.01-13.92,1.72-17.87-5.73c-1.9-3.59-0.26-5.72,0.55-6.74 c2.75-3.47,7.14-1.68,7.14-1.68C100.28,56.32,91.63,50.13,91.63,50.13z" fill="#E0E0E0"/>
      <path d="M113.36,66.39c0-6.63-6.72-6.58-6.72-6.58s5.09,1.71,2.54,6.59c-1.36,2.61-5.44,1.77-7.4-0.25 c-1.05-1.08-2.33-4.25-2.33-4.25s0.45,2.85,0.45,4.67c0,0-4.39-1.8-7.14,1.68c-0.14,0.17-0.3,0.39-0.47,0.63 c3.33-3.11,6.72-0.56,8.6,1.59c2.33,2.67,5.22,2.78,7.37,2.31C110.77,72.23,113.36,70.34,113.36,66.39z" fill="#BDBDBD"/>
      <path d="M117.23,55.83c7.68-4.76,2.9-12.52,2.9-12.52s1.36,5.72-2.72,8.09c-2.36,1.37-6.23,1.15-6.95-2.82 c-0.46-2.54,2.44-3.71,2.44-3.71s-2.2-0.56-3.98,0.86c-2.12,1.69-2.6,4.73-1.26,7.09C109.66,56.36,113.97,57.47,117.23,55.83z" fill="#BDBDBD"/>
      <path d="M72.8,79.56c1.49-2.98,4.74-7.62,1.55-14.8c-0.54-1.22-1.6-1.58-1.65-0.36 c-0.05,1.22,0.72,3.91,0.72,5.54c0,1.44,0.13,3.19-0.79,4.34c-0.25,0.31-2.66-0.48-5.74-5.38c-0.22-0.36-0.92-1.46-1.48-1.02 c-0.11,0.08-0.61,0.93,0.54,3.64c1.42,3.34,5.32,4.81,3.88,10.13c-0.17,0.63-3.86-0.93-6.76-5.32c-0.63-0.96-1.12-1.68-1.83-1.52 c-0.72,0.15-0.13,2.16,0.31,3.2c1.29,3.07,3.16,4.49,5.03,5.61c3.86,2.3,4.46,4.56,4.35,4.93c-0.11,0.37-5.09,2.09-10.15-2.31 c-6.6-5.74-6.23-14.97-6.39-17.6c-0.21-3.59,0.04-6.54-2.86-9.37c-1.56-1.52-3.95-1.49-4.6-1.34c-0.29,0.07-0.73,0.42-0.73,0.87 c0,0.31,0.21,0.78,0.85,0.97c2.97,0.9,4.23,2.13,4.25,9.05c0.07,19.26,11.09,22.96,16.79,23.19c3.52,0.14,6.4-1.56,6.59-2.31 c0.19-0.74-0.98-2.06-1.53-3.58C71.54,81.8,72.62,79.9,72.8,79.56z" fill="#546E7A"/>
    </g>
    <path d="M20.71,7.08c4.35,1.63,7.76,2.47,10.67,1.75c2.51-0.63,5.8-5.37,8.52-3.38 c0.87,0.63,1.61,1.42,2.2,2.32c1.82,2.77,2.68,5.46,2.39,9.51c-0.09,1.27-1.73,9.82-7.39,10.24c-2.04,0.15-3.98-0.89-5.49-2.27 s-2.83-2.7-5.41-4.29c-3.55-2.19-6.91-2.5-10.82-3.96L20.71,7.08z" fill="#E0E0E0"/>
    <path d="M15.33,5.39c1.9-0.57,4.99-0.23,7.12,2.14c5.32,5.95-0.39,11.32-3.5,11.45 c-4.17,0.18-4.66-1.02-7-1.79c-1.84-0.6-3.15,0.3-4.43,1.05c-0.67,0.39-1.55-0.2-1.35-0.95C8.38,9.27,11.54,6.52,15.33,5.39z" fill="#E8A631"/>
    <ellipse cx="36.99" cy="13.73" fill="#212121" rx="2.65" ry="2.01" transform="matrix(0.5879 -0.8089 0.8089 0.5879 4.1419 35.5805)"/>
    <path d="M31.2,17.98c-1.71-0.63-8.9-2.44-14.03-2.74c-4.5-0.26-7.47,1.83-7.6,1.88 c-0.15,0.06-0.27,0.15-0.37,0.25c0.76-0.29,1.6-0.43,2.62-0.21c1.19-0.36,2.98-0.73,5.16-0.58c5.16,0.35,15.75,3.46,15.86,3.49 c0.08,0.02,1.71,0.66,1.6,0.1C34.45,20.18,34.43,19.17,31.2,17.98z" fill="#424242"/>
  </g>
</svg>

<svg viewBox="0 0 128 128" xmlns="http://www.w3.org/2000/svg">
  <defs/>
  <path d="M63.01,99.87 C63.01,99.87 59.2,109.56 57.12,113.21 C55.48,116.09 48.85,116.87 44.8,117.91 C41.28,118.81 36.72,118.79 36.28,120.77 C35.84,122.76 37.34,123.81 40.9,123.94 C44.47,124.07 70.27,123.94 72.08,123.94 C73.89,123.94 75.2,121.63 71.48,119.08 C68.21,116.84 66.95,116.65 68.27,113.75 C69.59,110.84 75.72,101.35 75.72,101.35 L63.01,99.87 Z" fill="#E8A631"/>
  <path d="M32.6,20.99 C32.6,20.99 34.74,23.88 34.54,26.52 C34.41,28.22 34.54,30.83 26.32,34.22 C16.36,38.33 11.37,42.76 11.44,50.56 C11.54,61.51 18.12,67.15 21.04,69.33 C23.96,71.51 22.49,77.64 29.96,84.89 C40.66,95.28 46.61,93.94 52.15,96.41 C54.24,97.34 54.51,97.39 57.04,100.93 C58.99,103.66 63.28,108.01 69.15,108.01 C76.7,108.01 77.85,101.65 80.8,100.27 C83.75,98.89 104.88,97.1 107.28,79.61 C109.16,65.91 93.8,44.48 68.83,38.96 C57.62,36.48 50.48,39.65 46.67,40.6 C45.75,40.83 43.48,41.76 43.48,41.76 C42.77,39.91 46.02,38.15 48.35,36.03 C51.03,33.59 54.07,30.95 55.54,28.34 C62.97,15.07 51.94,0.93 38.7,4.59 C33.98,5.89 32.6,20.99 32.6,20.99 Z" fill="#78A3AD"/>
  <path d="M91.63,50.13 C91.63,50.13 90.02,43.88 94.68,40.97 C98.05,38.85 101.76,39.15 104.16,41.6 C105.43,40.51 106.79,39.42 108.41,39.01 C112.98,37.83 117.83,39.01 120.12,43.33 C123.23,49.19 120.51,52.26 116.77,55.82 C116.77,55.82 121.28,57.85 121.45,65.1 C121.6,71.52 119.23,78.16 110.08,80.75 C106.52,81.76 96.16,82.47 92.21,75.02 C90.31,71.43 91.95,69.3 92.76,68.28 C95.51,64.81 99.9,66.6 99.9,66.6 C100.28,56.32 91.63,50.13 91.63,50.13 Z" fill="#E0E0E0"/>
  <path d="M113.36,66.39 C113.36,59.76 106.64,59.81 106.64,59.81 C106.64,59.81 111.73,61.52 109.18,66.4 C107.82,69.01 103.74,68.17 101.78,66.15 C100.73,65.07 99.45,61.9 99.45,61.9 C99.45,61.9 99.9,64.75 99.9,66.57 C99.9,66.57 95.51,64.77 92.76,68.25 C92.62,68.42 92.46,68.64 92.29,68.88 C95.62,65.77 99.01,68.32 100.89,70.47 C103.22,73.14 106.11,73.25 108.26,72.78 C110.77,72.23 113.36,70.34 113.36,66.39 Z" fill="#BDBDBD"/>
  <path d="M117.23,55.83 C124.91,51.07 120.13,43.31 120.13,43.31 C120.13,43.31 121.49,49.03 117.41,51.4 C115.05,52.77 111.18,52.55 110.46,48.58 C110,46.04 112.9,44.87 112.9,44.87 C112.9,44.87 110.7,44.31 108.92,45.73 C106.8,47.42 106.32,50.46 107.66,52.82 C109.66,56.36 113.97,57.47 117.23,55.83 Z" fill="#BDBDBD"/>
  <path d="M72.8,79.56 C74.29,76.58 77.54,71.94 74.35,64.76 C73.81,63.54 72.75,63.18 72.7,64.4 C72.65,65.62 73.42,68.31 73.42,69.94 C73.42,71.38 73.55,73.13 72.63,74.28 C72.38,74.59 69.97,73.8 66.89,68.9 C66.67,68.54 65.97,67.44 65.41,67.88 C65.3,67.96 64.8,68.81 65.95,71.52 C67.37,74.86 71.27,76.33 69.83,81.65 C69.66,82.28 65.97,80.72 63.07,76.33 C62.44,75.37 61.95,74.65 61.24,74.81 C60.52,74.96 61.11,76.97 61.55,78.01 C62.84,81.08 64.71,82.5 66.58,83.62 C70.44,85.92 71.04,88.18 70.93,88.55 C70.82,88.92 65.84,90.64 60.78,86.24 C54.18,80.5 54.55,71.27 54.39,68.64 C54.18,65.05 54.43,62.1 51.53,59.27 C49.97,57.75 47.58,57.78 46.93,57.93 C46.64,58 46.2,58.35 46.2,58.8 C46.2,59.11 46.41,59.58 47.05,59.77 C50.02,60.67 51.28,61.9 51.3,68.82 C51.37,88.08 62.39,91.78 68.09,92.01 C71.61,92.15 74.49,90.45 74.68,89.7 C74.87,88.96 73.7,87.64 73.15,86.12 C71.54,81.8 72.62,79.9 72.8,79.56 Z" fill="#546E7A"/>
  <path d="M20.71,7.08 C25.06,8.71 28.47,9.55 31.38,8.83 C33.89,8.2 37.18,3.46 39.9,5.45 C40.77,6.08 41.51,6.87 42.1,7.77 C43.92,10.54 44.78,13.23 44.49,17.28 C44.4,18.55 42.76,27.1 37.1,27.52 C35.06,27.67 33.12,26.63 31.61,25.25 C30.1,23.87 28.78,22.55 26.2,20.96 C22.65,18.77 19.29,18.46 15.38,17 L20.71,7.08 Z" fill="#E0E0E0"/>
  <path d="M15.33,5.39 C17.23,4.82 20.32,5.16 22.45,7.53 C27.77,13.48 22.06,18.85 18.95,18.98 C14.78,19.16 14.29,17.96 11.95,17.19 C10.11,16.59 8.8,17.49 7.52,18.24 C6.85,18.63 5.97,18.04 6.17,17.29 C8.38,9.27 11.54,6.52 15.33,5.39 Z" fill="#E8A631"/>
  <path d="M38.552,11.588 C39.45,12.24 39.481,13.729 38.62,14.913 C37.76,16.097 36.335,16.527 35.437,15.875 C34.539,15.222 34.508,13.733 35.369,12.549 C36.229,11.366 37.654,10.935 38.552,11.588 Z" fill="#212121"/>
  <path d="M31.2,17.98 C29.49,17.35 22.3,15.54 17.17,15.24 C12.67,14.98 9.7,17.07 9.57,17.12 C9.42,17.18 9.3,17.27 9.2,17.37 C9.96,17.08 10.8,16.94 11.82,17.16 C13.01,16.8 14.8,16.43 16.98,16.58 C22.14,16.93 32.73,20.04 32.84,20.07 C32.92,20.09 34.55,20.73 34.44,20.17 C34.45,20.18 34.43,19.17 31.2,17.98 Z" fill="#424242"/>
</svg>
